X: 42612
T: Whinny Hills Of Leitrim, The
R: slip jig
M: 9/8
K: Dmajor
|:FAA FAB AFD|FAA FAB d2 A|FAA FAB AFD|
[1 ~f3 edc B2 A:|2 ~f3 edc B2 e||
|:~f3 efe d2 e|~f3 def gfe|~f3 efe d2 A|
[1 BAF DFA B2 e:|2 BAF DFA B2 A||

